X: 1
T: Despair Not, O Heart
C: Words: Aurelius Clemens Prudentius, 348-413; translated by Edward Traill Horn III, 1909-. 
C: Music: 'Iam Moesta' or 'Jam Moesta' or 'Despair Not O Heart' or 'Med Sorgen Og Klagen' 
C: unknown, sometimes attr. Martin Luther, 1542.  Setting: The Wartburg Hymnal, 1918, alt.
C: copyright: public domain.  This score is a part of the Open Hymnal Project, 2006 Revision.
S: Music source: 'The Wartburg Hymnal', 1918 Hymn 125.
M: 2/4 % time signature
L: 1/4 % default length
%%staves (S1V1 S1V2) | (S2V1 S2V2) 
V: S1V1 clef=treble 
V: S1V2 
V: S2V1 clef=bass 
V: S2V2 
K: F % key signature
%
%%MIDI program 1 0 % Piano 1
%%MIDI program 2 0 % Piano 1
%%MIDI program 3 0 % Piano 1
%%MIDI program 4 0 % Piano 1
%
% 1
[V: S1V1]  F | B G/G/ | A G/F/ | G2 | F F | G A/A/ | c B/A/ | G2 | A
w: 1.~De- spair not, O heart, in thy sor- row, From God's own as- sur- an- ces bor- row 
w: 2.~As seed in the spring- time is plant- ed, And rests in the earth un- til grant- ed 
w: 3.~So we, a- mid sor- row and weep- ing Com- mit- ted, O earth, to thy keep- ing, 
w: 4.~O Lord, at thy com- ing in glo- ry, When all shall bow down and a- dore thee, 
[V: S1V2]  F | F F/E/ | F E/C/ | (D E) | F F | E F/F/ | E E/F/ | D2 | E
[V: S2V1]  A, | B, D/C/ | C B,/A,/ | (G, B,) | A, A, | B, C/D/ | G, G,/F,/ | D2 | ^C
[V: S2V2]  F, | D, B,,/C,/ | F,, G,,/A,,/ | (B,, C,) | F, D, | G, F,/D,/ | C, C,/D,/ | B,,2 | A,,
% 9
[V: S1V1]  F | A G/G/ | F E/C/ | D2 | C c | d B/B/ | c B/A/ | G2 | F |]
w: The prom- ise that Je- sus has gi- ven: That life has in death its be- gin- ing. 
w: God's bless- ing of warmth and of show- ers, And blos- soms in leaf- lets and flow- ers; 
w: Shall, giv- en new life and per- fec- tion, Come forth in the great res- ur- rec- tion. 
w: Then forth from thy tomb's o- pen por- tal, o lead us to man- sions im- mor- tal. 
[V: S1V2]  D | C D/C/ | =B, C/C/ | =B,2 | C F | F G/G/ | G E/F/ | (D E) | C |]
[V: S2V1]  A, | A, =B,/G,/ | G, G,/E,/ | F,2 | E, F, | F, G,/D/ | C G,/F,/ | B,2 | A, |]
[V: S2V2]  D, | F, F,/E,/ | D, C,/C,/ | G,,2 | C, A,, | B,, G,/F,/ | E, C,/D,/ | (B,, C,) | F,, |]
% 19
